X:1
T:Title
L:1/8
Q:1/4=105
M:3/4
K:G
V:1 treble nm="Church Organ, Staff"
V:1
 B2 d2 F2 | G2 c4 | B2 BA G2 | A2 B4 | B2 B2 A2- | A2 e4 | d2 c3 E | FG A4 | A2 B2 A2 | B2 d2 ^c2 | %10
w: By~Mr.~G.~B.~Lissant * *||||||||||
 B2 AB ^c2 | e2 d4 | ^c2 c2 B2 | A2 A3 G | FE D2 F2 | E2 D4- | D2 d2 cB | AG F4 | E2 cB AG | %19
w: |||||||||
 FE E2 ^D2 | F2 B2 z B | AG G3 e- | e d2 c2 E- | E F2 G3- | G2 z2 z2 |] %25
w: ||||||

